material/.icons/material/bell-minus-outline.svg

<svg xmlns="http://www.w3.org/2000/svg" viewBox="0 0 24 24"><path d="M12 2c-1.1 0-2 .9-2 2v.29C7.12 5.14 5 7.82 5 11v6l-2 2v1h9v-2H7v-7c0-2.76 2.24-5 5-5s5 2.24 5 5v4h2v-4c0-3.18-2.12-5.86-5-6.71V4a2 2 0 00-2-2m2 15v2h8v-2m-12 4a2 2 0 002 2c1.11 0 2-.89 2-2h-2z"/></svg>

<?xml version="1.0" encoding="UTF-8"?><!DOCTYPE svg PUBLIC "-//W3C//DTD SVG 1.1//EN" "http://www.w3.org/Graphics/SVG/1.1/DTD/svg11.dtd"><svg xmlns="http://www.w3.org/2000/svg" xmlns:xlink="http://www.w3.org/1999/xlink" version="1.1" id="mdi-bell-minus-outline" width="24" height="24" viewBox="0 0 24 24"><path d="M12 2C10.9 2 10 2.9 10 4C10 4.1 10 4.19 10 4.29C7.12 5.14 5 7.82 5 11V17L3 19V20H12V18H7V11C7 8.24 9.24 6 12 6C14.76 6 17 8.24 17 11V15H19V11C19 7.82 16.88 5.14 14 4.29C14 4.19 14 4.1 14 4C14 2.9 13.11 2 12 2M14 17V19H22V17M10 21C10 22.11 10.9 23 12 23C13.11 23 14 22.11 14 21H12Z" /></svg>
